src/lib/packages/icons/src/assets/filled/newspaper.svg

<svg xmlns="http://www.w3.org/2000/svg" width="24" height="24" fill="none"><path fill="currentColor" d="M19 5H9C7 5 6 6 6 8v10a2 2 0 0 1-2 2h15c2 0 3-1 3-3V8c0-2-1-3-3-3Zm-5 10.577c0 .615-.308.923-.923.923H9.923c-.615 0-.923-.308-.923-.923v-2.154c0-.615.308-.923.923-.923h3.154c.615 0 .923.308.923.923v2.154Zm5 1.173h-2a.75.75 0 0 1 0-1.5h2a.75.75 0 0 1 0 1.5Zm0-3h-2a.75.75 0 0 1 0-1.5h2a.75.75 0 0 1 0 1.5Zm0-4H9.75a.75.75 0 0 1 0-1.5H19a.75.75 0 0 1 0 1.5ZM3.251 18.499A1.25 1.25 0 0 1 2 17.249V11c0-1.1.9-2 2-2h.5v8.249a1.25 1.25 0 0 1-1.249 1.25Z"/></svg>

<svg width="24" height="24" viewBox="0 0 24 24" fill="none" xmlns="http://www.w3.org/2000/svg">
<path d="M19 5H9C7 5 6 6 6 8V18C6 19.105 5.104 20 4 20H19C21 20 22 19 22 17V8C22 6 21 5 19 5ZM14 15.577C14 16.192 13.6919 16.5 13.0769 16.5H9.9231C9.3081 16.5 9 16.192 9 15.577V13.423C9 12.808 9.3081 12.5 9.9231 12.5H13.0769C13.6919 12.5 14 12.808 14 13.423V15.577ZM19 16.75H17C16.586 16.75 16.25 16.414 16.25 16C16.25 15.586 16.586 15.25 17 15.25H19C19.414 15.25 19.75 15.586 19.75 16C19.75 16.414 19.414 16.75 19 16.75ZM19 13.75H17C16.586 13.75 16.25 13.414 16.25 13C16.25 12.586 16.586 12.25 17 12.25H19C19.414 12.25 19.75 12.586 19.75 13C19.75 13.414 19.414 13.75 19 13.75ZM19 9.75H9.75C9.336 9.75 9 9.414 9 9C9 8.586 9.336 8.25 9.75 8.25H19C19.414 8.25 19.75 8.586 19.75 9C19.75 9.414 19.414 9.75 19 9.75ZM3.25098 18.499C2.55998 18.5 2 17.94 2 17.249V11C2 9.9 2.9 9 4 9H4.5V17.249C4.5 17.939 3.94098 18.498 3.25098 18.499Z" fill="currentColor"/>
</svg>
